; HEADER_BLOCK_START
; generated by Creality_Print V5.1.4.10249 on 2025-04-06 at 22:34:41
; total layer number: 30
; filament_density: 1.24
; filament_diameter: 1.75
; max_z_height: 6.00
; HEADER_BLOCK_END

; MINX = 106.00
; MINY = 106.00
; MINZ = -0.00
; MAXX = 114.00
; MAXY = 114.00
; MAXZ = 6.00

; THUMBNAIL_BLOCK_START

;
; THUMBNAIL_BLOCK_END

; external perimeters extrusion width = 0.42mm
; perimeters extrusion width = 0.45mm
; infill extrusion width = 0.45mm
; solid infill extrusion width = 0.45mm
; top infill extrusion width = 0.42mm
; support material extrusion width = 0.38mm
; first layer extrusion width = 0.50mm

; EXECUTABLE_BLOCK_START
M73 P0 R4
M201 X500 Y500 Z100 E5000
M203 X500 Y500 Z10 E60
M204 P500 R1000 T500
M205 X12.00 Y12.00 Z0.40 E5.00 ; sets the jerk limits, mm/sec
;TYPE:Custom
G90 ; use absolute coordinates
M83 ; extruder relative mode
M104 S150 ; set temporary nozzle temp to prevent oozing during homing
M140 S60 ; set final bed temp
G4 S30 ; allow partial nozzle warmup
G28 ; home all axis and restore leveling
G1 Z50 F240
G1 X2.0 Y10 F3000
M104 S200 ; set final nozzle temp
M190 S60 ; wait for bed temp to stabilize
M109 S200 ; wait for nozzle temp to stabilize
M73 P4 R4
G1 Z0.28 F240
G92 E0
G1 X2.0 Y140 E10 F1500 ; prime the nozzle
M73 P8 R4
G1 X2.3 Y140 F5000
G92 E0
M73 P10 R4
G1 X2.3 Y10 E10 F1200 ; prime the nozzle
G92 E0
G90
G21
M83 ; use relative distances for extrusion
; filament start gcode
M106 S0
;LAYER_CHANGE
;Z:0.2
;HEIGHT:0.2
;BEFORE_LAYER_CHANGE
;0.2
G92 E0

G1 E-1 F2400
;_SET_FAN_SPEED_CHANGING_LAYER
M204 S500
M205 X9 Y9
; printing object Pin.STL id:140706445433856 copy 0
M73 P12 R4
G1 Z.2 F9600
G1 X112.793 Y110.667
G1 Z.2
M73 P13 R4
G1 E1 F2400
;TYPE:Inner wall
;WIDTH:0.499999
G1 F780
G1 X112.732 Y110.938 E.01001
G1 X112.461 Y111.513 E.02295
G1 X112.071 Y112.014 E.02295
G1 X111.58 Y112.418 E.02295
G1 X111.013 Y112.705 E.02295
G1 X110.397 Y112.861 E.02295
G1 X109.761 Y112.879 E.02295
G1 X109.138 Y112.757 E.02295
G1 X108.556 Y112.502 E.02295
G1 X108.044 Y112.125 E.02295
G1 X107.626 Y111.646 E.02295
G1 X107.324 Y111.087 E.02295
G3 X107.127 Y110.215 I4.408 J-1.451 E.03232
G1 X107.148 Y109.534 E.02462
G1 X107.324 Y108.913 E.02329
G1 X107.626 Y108.354 E.02295
G1 X108.044 Y107.875 E.02295
G1 X108.556 Y107.498 E.02295
G1 X109.138 Y107.243 E.02295
G3 X110.061 Y107.11 I1.063 J4.101 E.03374
G1 X110.709 Y107.2 E.02364
G1 X111.304 Y107.423 E.02295
G1 X111.836 Y107.77 E.02295
G1 X112.28 Y108.226 E.02295
G1 X112.614 Y108.769 E.02303
G1 X112.804 Y109.311 E.02075
G1 X112.871 Y109.87 E.02032
G1 X112.871 Y110.318 E.01616
G1 X112.802 Y110.628 E.01149
G1 X113.316 Y110.094 F9600
;TYPE:Outer wall
G1 F780
G1 X113.328 Y110.368 E.00993
G1 X113.167 Y111.087 E.0266
G1 X112.853 Y111.754 E.0266
G1 X112.4 Y112.335 E.0266
G1 X111.831 Y112.803 E.0266
G1 X111.174 Y113.136 E.0266
G1 X110.46 Y113.317 E.0266
G1 X109.724 Y113.337 E.0266
G1 X109 Y113.196 E.0266
G1 X108.326 Y112.9 E.0266
M73 P14 R4
G1 X107.732 Y112.464 E.0266
G1 X107.248 Y111.908 E.0266
G1 X106.898 Y111.26 E.0266
G1 X106.696 Y110.548 E.02672
G3 X106.696 Y109.452 I3.283 J-.548 E.03976
G1 X106.898 Y108.74 E.02672
G1 X107.248 Y108.092 E.0266
G1 X107.732 Y107.536 E.0266
G1 X108.326 Y107.1 E.0266
G1 X109 Y106.804 E.0266
G3 X110.086 Y106.652 I1.23 J4.826 E.03966
G1 X110.822 Y106.754 E.02683
G1 X111.512 Y107.012 E.0266
G1 X112.129 Y107.415 E.0266
G1 X112.643 Y107.943 E.0266
G1 X113.029 Y108.572 E.02663
G3 X113.284 Y109.389 I-6.713 J2.541 E.03093
G1 X113.314 Y110.054 E.02402
G1 E-.7 F2400
;WIPE_START
G1 F1800
G1 X113.328 Y110.368 E-.09451
G1 X113.178 Y111.037 E-.20549
;WIPE_END
G1 Z.4 F9600
G1 X112.507 Y109.017
G1 Z.4
G1 Z.2
G1 E1 F2400
;TYPE:Bottom surface
;WIDTH:0.537509
G1 F780
G1 X111.513 Y108.023 E.05494
G1 X111.128 Y107.771 E.01795
G1 X110.613 Y107.579 E.02147
G1 X110.33 Y107.539 E.01118
G1 X112.479 Y109.689 E.11877
G1 X112.483 Y110.275 E.02289
G1 X112.461 Y110.37 E.00382
G1 X109.633 Y107.542 E.15626
G1 X109.254 Y107.616 E.01508
G1 X109.083 Y107.691 E.00732
G1 X112.311 Y110.92 E.17837
G1 X112.128 Y111.308 E.01678
G1 X112.072 Y111.38 E.00356
G1 X108.623 Y107.931 E.19056
M73 P15 R4
G1 X108.308 Y108.162 E.01526
G1 X108.237 Y108.244 E.00425
G1 X111.76 Y111.767 E.19464
G1 X111.376 Y112.083 E.01941
G1 X107.92 Y108.627 E.19095
G1 X107.679 Y109.085 E.02023
G1 X110.914 Y112.32 E.17874
G1 X110.363 Y112.469 E.02228
G1 X107.53 Y109.635 E.15657
G2 X107.527 Y110.332 I2.085 J.356 E.02735
G1 X109.657 Y112.463 E.11772
G1 X109.254 Y112.384 E.01605
G1 X108.751 Y112.163 E.02147
G1 X108.402 Y111.906 E.01694
G1 X107.487 Y110.991 E.05057
; stop printing object Pin.STL id:140706445433856 copy 0
;TIME_ELAPSED:45.591736

M106 S255
;LAYER_CHANGE
;Z:0.4
;HEIGHT:0.2
;BEFORE_LAYER_CHANGE
;0.4
G92 E0

G1 E-.7 F2400
;WIPE_START
G1 F3000
G1 X108.194 Y111.698 E-.3
;WIPE_END
;_SET_FAN_SPEED_CHANGING_LAYER
M205 X12 Y12
M104 S190 ; set nozzle temperature
; printing object Pin.STL id:140706445433856 copy 0
M204 S2500
G1 Z.4 F12000
G1 X113.144 Y110.453 Z.4
G1 E1 F2400
M204 S500
M205 X9 Y9
;TYPE:Inner wall
;WIDTH:0.449999
G1 F870
M73 P16 R4
G1 X113.117 Y110.699 E.00794
G1 X112.889 Y111.363 E.0226
G1 X112.521 Y111.962 E.0226
G1 X112.031 Y112.466 E.0226
G1 X111.442 Y112.85 E.0226
G1 X110.777 Y113.099 E.02284
G3 X109.266 Y113.106 I-.769 J-3.224 E.04901
G1 X108.72 Y112.927 E.01849
G1 X108.108 Y112.574 E.02272
G1 X107.591 Y112.098 E.0226
G1 X107.191 Y111.52 E.0226
G1 X106.926 Y110.869 E.0226
G3 X106.808 Y109.84 I4.587 J-1.049 E.03337
G1 X106.926 Y109.131 E.02313
G1 X107.191 Y108.48 E.0226
G1 X107.591 Y107.902 E.0226
G1 X108.108 Y107.426 E.0226
G1 X108.717 Y107.075 E.0226
G1 X109.388 Y106.865 E.0226
G1 X110.088 Y106.807 E.0226
G1 X110.784 Y106.903 E.0226
G1 X111.442 Y107.15 E.0226
G1 X112.031 Y107.534 E.0226
G1 X112.521 Y108.038 E.0226
G1 X112.889 Y108.637 E.0226
G1 X113.117 Y109.301 E.0226
G1 X113.194 Y110 E.0226
G1 X113.149 Y110.413 E.01338
M204 S2500
M205 X12 Y12
G1 X113.583 Y110.049 F12000
M204 S500
M205 X9 Y9
;TYPE:Outer wall
;WIDTH:0.419999
G1 F870
G1 X113.502 Y110.785 E.02206
G1 X113.246 Y111.532 E.02352
G1 X112.832 Y112.204 E.02351
G1 X112.281 Y112.77 E.02353
G1 X111.62 Y113.202 E.02352
G1 X110.879 Y113.48 E.02357
G1 X110.35 Y113.567 E.01597
G1 X109.702 Y113.577 E.0193
G1 X109.172 Y113.487 E.01601
G1 X108.559 Y113.287 E.01921
G1 X107.875 Y112.892 E.02353
G1 X107.294 Y112.357 E.02353
M73 P16 R3
G1 X106.844 Y111.708 E.02352
G1 X106.547 Y110.977 E.0235
G1 X106.447 Y110.382 E.01797
G1 X106.416 Y109.808 E.01712
G1 X106.547 Y109.023 E.02371
G1 X106.844 Y108.292 E.0235
G1 X107.294 Y107.643 E.02352
G1 X107.875 Y107.108 E.02353
G1 X108.558 Y106.713 E.0235
G1 X109.312 Y106.478 E.02352
G1 X110.099 Y106.413 E.02352
G1 X110.881 Y106.521 E.02351
G1 X111.62 Y106.798 E.02351
G1 X112.281 Y107.23 E.02352
G1 X112.832 Y107.796 E.02353
G1 X113.246 Y108.468 E.02351
G1 X113.502 Y109.215 E.02352
G1 X113.589 Y110 E.02353
M73 P17 R3
G1 X113.588 Y110.009 E.00027
G1 E-.7 F2400
;WIPE_START
G1 F2463.811
G1 X113.502 Y110.785 E-.23406
G1 X113.431 Y110.993 E-.06594
;WIPE_END
M204 S2500
M205 X12 Y12
G1 Z.6 F12000
G1 X112.765 Y111.223
G1 Z.6
G1 Z.4
G1 E1 F2400
M204 S500
;TYPE:Internal solid infill
;WIDTH:0.477246
G1 F870
G1 X111.755 Y112.233 E.04901
G1 X111.285 Y112.54 E.01925
G1 X110.688 Y112.763 E.02189
G1 X110.595 Y112.779 E.00323
G1 X112.781 Y110.593 E.10606
G1 X112.846 Y110 E.02046
G1 X112.838 Y109.922 E.00271
G1 X109.924 Y112.835 E.14138
G1 X109.759 Y112.838 E.00566
G1 X109.372 Y112.772 E.01345
G1 X112.775 Y109.37 E.16508
G1 X112.618 Y108.913 E.01659
G1 X108.907 Y112.624 E.18007
G1 X108.51 Y112.406 E.01552
G1 X112.405 Y108.511 E.189
G2 X112.15 Y108.153 I-.928 J.392 E.01523
G1 X108.155 Y112.147 E.1938
G1 X107.839 Y111.849 E.01491
G1 X111.847 Y107.841 E.19443
G1 X111.484 Y107.59 E.01515
M73 P18 R3
G1 X107.588 Y111.486 E.18902
G3 X107.384 Y111.076 I.813 J-.661 E.01584
G1 X111.077 Y107.382 E.1792
G1 X110.699 Y107.241 E.01386
G1 X110.616 Y107.229 E.00287
G1 X107.234 Y110.611 E.16409
G1 X107.154 Y110.077 E.01853
G1 X110.076 Y107.155 E.14178
G1 X109.454 Y107.207 E.0214
G1 X109.39 Y107.227 E.00231
G1 X107.235 Y109.382 E.10456
G1 X107.261 Y109.226 E.00543
G1 X107.497 Y108.645 E.02149
G1 X107.813 Y108.19 E.01901
G1 X108.771 Y107.231 E.04651
M204 S2500
G1 X108.282 Y112.339 F12000
M204 S500
;TYPE:Gap infill
;WIDTH:0.0938771
G1 F870
G1 X108.258 Y112.39 E.00023
G1 X108.192 Y112.374 E.00027
; stop printing object Pin.STL id:140706445433856 copy 0
;TIME_ELAPSED:54.192230

;LAYER_CHANGE
;Z:0.6
;HEIGHT:0.2
;BEFORE_LAYER_CHANGE
;0.6
G92 E0

G1 E-.90026 F2400
;WIPE_START
G1 F3000
G1 X108.258 Y112.39 E-.05447
G1 X108.282 Y112.339 E-.04526
;WIPE_END
;_SET_FAN_SPEED_CHANGING_LAYER
; printing object Pin.STL id:140706445433856 copy 0
M204 S2500
G1 Z.6 F12000
G1 X113.342 Y110.473 Z.6
G1 E1 F2400
M204 S500
M205 X9 Y9
;TYPE:Inner wall
;WIDTH:0.449999
G1 F960
G1 X113.312 Y110.742 E.0087
G1 X113.07 Y111.449 E.02401
G1 X112.679 Y112.085 E.02401
M73 P19 R3
G1 X112.158 Y112.62 E.02402
G1 X111.533 Y113.029 E.02401
G1 X110.833 Y113.29 E.02402
G1 X110.094 Y113.393 E.02401
G1 X109.349 Y113.331 E.02401
G1 X108.637 Y113.108 E.02401
G1 X107.99 Y112.735 E.02401
G1 X107.44 Y112.229 E.02402
G1 X107.015 Y111.616 E.02401
G1 X106.734 Y110.924 E.02402
G3 X106.608 Y109.829 I4.879 J-1.114 E.03549
G1 X106.734 Y109.076 E.02454
G1 X107.015 Y108.384 E.02402
G1 X107.44 Y107.771 E.02401
G1 X107.99 Y107.265 E.02402
G1 X108.637 Y106.892 E.02401
G1 X109.349 Y106.669 E.02401
G1 X110.094 Y106.607 E.02401
G1 X110.833 Y106.71 E.02401
G1 X111.533 Y106.971 E.02402
G1 X112.158 Y107.38 E.02401
G1 X112.679 Y107.915 E.02402
G1 X113.07 Y108.551 E.02401
G1 X113.312 Y109.258 E.02401
G1 X113.394 Y110 E.02402
G1 X113.346 Y110.434 E.01402
M204 S2500
M205 X12 Y12
G1 X113.781 Y110.069 F12000
M204 S500
M205 X9 Y9
;TYPE:Outer wall
;WIDTH:0.419999
G1 F960
G1 X113.697 Y110.829 E.02278
G1 X113.426 Y111.617 E.02482
G1 X112.99 Y112.327 E.02482
G1 X112.409 Y112.925 E.02483
G1 X111.711 Y113.381 E.02483
G1 X110.93 Y113.673 E.02484
G1 X110.104 Y113.787 E.02484
G1 X109.274 Y113.719 E.02481
G1 X108.478 Y113.47 E.02484
G1 X107.756 Y113.053 E.02484
G1 X107.143 Y112.488 E.02483
G1 X106.668 Y111.803 E.02483
G1 X106.354 Y111.031 E.02482
G1 X106.249 Y110.404 E.01894
G1 X106.216 Y109.797 E.01811
G1 X106.354 Y108.969 E.025
G1 X106.668 Y108.197 E.02482
G1 X107.143 Y107.512 E.02483
G1 X107.756 Y106.947 E.02483
G1 X108.478 Y106.53 E.02484
G1 X109.274 Y106.281 E.02484
G1 X110.104 Y106.213 E.02481
G1 X110.93 Y106.327 E.02484
G1 X111.711 Y106.619 E.02484
G1 X112.409 Y107.075 E.02483
G1 X112.99 Y107.673 E.02483
G1 X113.426 Y108.383 E.02482
G1 X113.697 Y109.171 E.02482
G1 X113.789 Y110 E.02484
G1 X113.786 Y110.029 E.00087
G1 E-.7 F2400
;WIPE_START
G1 F2463.806
G1 X113.697 Y110.829 E-.24122
G1 X113.633 Y111.014 E-.05878
;WIPE_END
M204 S2500
M205 X12 Y12
M73 P20 R3
G1 Z.8 F12000
G1 X111.346 Y107.075
G1 Z.8
G1 Z.6
G1 E1 F2400
M204 S500
;TYPE:Internal solid infill
;WIDTH:0.474864
G1 F960
G1 X112.411 Y108.14 E.05136
G1 X112.755 Y108.7 E.02243
G1 X112.961 Y109.302 E.0217
G1 X110.7 Y107.04 E.10911
G1 X110.084 Y106.955 E.02123
G1 X110.01 Y106.961 E.00253
G1 X113.046 Y109.997 E.14649
G1 X112.986 Y110.547 E.0189
G1 X109.446 Y107.008 E.1708
G1 X108.975 Y107.148 E.01675
G1 X112.85 Y111.023 E.18697
G3 X112.664 Y111.448 I-1.041 J-.202 E.01595
G1 X108.555 Y107.338 E.19829
G1 X108.173 Y107.567 E.0152
G1 X112.432 Y111.826 E.20551
G1 X112.139 Y112.144 E.01475
G1 X107.854 Y107.86 E.20672
G2 X107.572 Y108.188 I.591 J.795 E.0149
M73 P21 R3
G1 X111.815 Y112.431 E.20473
G1 X111.445 Y112.672 E.01506
G1 X107.322 Y108.549 E.19897
G1 X107.145 Y108.983 E.01599
G1 X111.015 Y112.853 E.18674
G3 X110.534 Y112.983 I-.53 J-1.009 E.01714
G1 X107.019 Y109.468 E.1696
G2 X106.954 Y110.014 I1.603 J.468 E.01884
G1 X109.977 Y113.036 E.14584
G1 X109.416 Y112.99 E.01919
G1 X109.275 Y112.946 E.00503
G1 X107.051 Y110.721 E.10734
G1 X107.069 Y110.829 E.00372
G1 X107.321 Y111.45 E.02287
G1 X107.666 Y111.947 E.02064
G1 X108.643 Y112.924 E.04715
; stop printing object Pin.STL id:140706445433856 copy 0
;TIME_ELAPSED:62.757763

;LAYER_CHANGE
;Z:0.8
;HEIGHT:0.2
;BEFORE_LAYER_CHANGE
;0.8
G92 E0

G1 E-.7 F2400
;WIPE_START
G1 F5556.276
G1 X107.936 Y112.217 E-.3
;WIPE_END
;_SET_FAN_SPEED_CHANGING_LAYER
; printing object Pin.STL id:140706445433856 copy 0
M204 S2500
G1 Z.8 F12000
G1 X113.342 Y110.472 Z.8
G1 E1 F2400
M204 S500
M205 X9 Y9
;TYPE:Inner wall
;WIDTH:0.449999
G1 F954
G1 X113.312 Y110.742 E.00876
G1 X113.07 Y111.449 E.02401
G1 X112.679 Y112.085 E.02401
M73 P22 R3
G1 X112.158 Y112.62 E.02402
G1 X111.533 Y113.029 E.02401
G1 X110.833 Y113.29 E.02401
G1 X110.094 Y113.393 E.02401
G1 X109.349 Y113.331 E.02401
G1 X108.637 Y113.108 E.02401
G1 X107.99 Y112.735 E.02401
G1 X107.44 Y112.229 E.02401
G1 X107.015 Y111.616 E.02401
G1 X106.734 Y110.924 E.02402
G3 X106.608 Y109.829 I4.879 J-1.114 E.03549
G1 X106.734 Y109.076 E.02454
G1 X107.015 Y108.384 E.02402
G1 X107.44 Y107.771 E.02401
G1 X107.99 Y107.265 E.02401
G1 X108.637 Y106.892 E.02402
G1 X109.349 Y106.669 E.02401
G1 X110.094 Y106.607 E.02401
G1 X110.833 Y106.71 E.02402
G1 X111.533 Y106.971 E.02401
G1 X112.158 Y107.38 E.02401
G1 X112.679 Y107.915 E.02402
G1 X113.07 Y108.551 E.02401
G1 X113.312 Y109.258 E.02401
G1 X113.394 Y110 E.02402
G1 X113.347 Y110.432 E.01397
M204 S2500
M205 X12 Y12
G1 X113.781 Y110.067 F12000
M204 S500
M205 X9 Y9
;TYPE:Outer wall
;WIDTH:0.419999
G1 F954
G1 X113.697 Y110.829 E.02281
G1 X113.426 Y111.617 E.02483
G1 X112.99 Y112.327 E.02483
G1 X112.409 Y112.925 E.02483
G1 X111.711 Y113.381 E.02483
G1 X110.93 Y113.673 E.02483
G1 X110.104 Y113.787 E.02483
G1 X109.274 Y113.719 E.02483
G1 X108.478 Y113.47 E.02483
G1 X107.756 Y113.053 E.02483
G1 X107.143 Y112.488 E.02483
G1 X106.668 Y111.803 E.02483
G1 X106.354 Y111.031 E.02483
G3 X106.216 Y109.797 I5.504 J-1.241 E.03707
G1 X106.354 Y108.969 E.025
G1 X106.668 Y108.197 E.02483
G1 X107.143 Y107.512 E.02483
G1 X107.756 Y106.947 E.02483
G1 X108.478 Y106.53 E.02483
G1 X109.274 Y106.281 E.02483
G1 X110.104 Y106.213 E.02483
G1 X110.93 Y106.327 E.02483
G1 X111.711 Y106.619 E.02483
G1 X112.409 Y107.075 E.02483
G1 X112.99 Y107.673 E.02483
G1 X113.426 Y108.383 E.02483
G1 X113.697 Y109.171 E.02483
G1 X113.789 Y110 E.02483
G1 X113.786 Y110.028 E.00083
G1 E-.7 F2400
;WIPE_START
G1 F3000
G1 X113.697 Y110.829 E-.24172
G1 X113.634 Y111.012 E-.05828
;WIPE_END
M204 S2500
M205 X12 Y12
M73 P23 R3
G1 Z1 F12000
G1 X111.346 Y112.925
G1 Z1
G1 Z.8
G1 E1 F2400
M204 S500
;TYPE:Internal solid infill
;WIDTH:0.474863
G1 F954
G1 X112.411 Y111.86 E.05136
G1 X112.755 Y111.3 E.02243
G1 X112.961 Y110.698 E.0217
G1 X110.7 Y112.96 E.10911
G1 X110.084 Y113.045 E.02123
G1 X110.01 Y113.039 E.00253
G1 X113.046 Y110.003 E.14649
G1 X112.986 Y109.453 E.0189
G1 X109.446 Y112.992 E.1708
G1 X108.975 Y112.852 E.01675
G1 X112.85 Y108.977 E.18697
G2 X112.664 Y108.552 I-1.041 J.202 E.01595
G1 X108.555 Y112.662 E.19829
G1 X108.173 Y112.433 E.0152
G1 X112.432 Y108.174 E.20551
G1 X112.139 Y107.856 E.01475
G1 X107.854 Y112.14 E.20672
G3 X107.572 Y111.812 I.591 J-.795 E.0149
M73 P24 R3
G1 X111.815 Y107.569 E.20473
G1 X111.445 Y107.328 E.01506
G1 X107.322 Y111.451 E.19897
G1 X107.145 Y111.017 E.01599
G1 X111.015 Y107.147 E.18674
G2 X110.534 Y107.017 I-.53 J1.009 E.01714
G1 X107.019 Y110.532 E.1696
G3 X106.954 Y109.986 I1.603 J-.468 E.01884
G1 X109.977 Y106.964 E.14584
G1 X109.416 Y107.01 E.01919
G1 X109.275 Y107.054 E.00503
G1 X107.051 Y109.279 E.10734
G1 X107.069 Y109.171 E.00372
G1 X107.321 Y108.55 E.02287
G1 X107.666 Y108.053 E.02064
G1 X108.643 Y107.076 E.04715
; stop printing object Pin.STL id:140706445433856 copy 0
;TIME_ELAPSED:71.349434

;LAYER_CHANGE
;Z:1
;HEIGHT:0.2
;BEFORE_LAYER_CHANGE
;1
G92 E0

G1 E-.7 F2400
;WIPE_START
G1 F5556.289
G1 X107.936 Y107.783 E-.3
;WIPE_END
;_SET_FAN_SPEED_CHANGING_LAYER
; printing object Pin.STL id:140706445433856 copy 0
M204 S2500
G1 Z1 F12000
G1 X113.342 Y110.47 Z1
G1 E1 F2400
M204 S500
M205 X9 Y9
;TYPE:Inner wall
;WIDTH:0.449999
G1 F600
G1 X113.312 Y110.742 E.00881
G1 X113.07 Y111.449 E.02401
G1 X112.679 Y112.085 E.02401
M73 P25 R3
