; HEADER_BLOCK_START
; generated by Creality_Print V5.1.4.10249 on 2025-04-05 at 19:07:45
; total layer number: 10
; filament_density: 1.24
; filament_diameter: 1.75
; max_z_height: 2.00
; HEADER_BLOCK_END

; MINX = 65.01
; MINY = 65.00
; MINZ = -0.00
; MAXX = 154.99
; MAXY = 155.00
; MAXZ = 2.00

; THUMBNAIL_BLOCK_START

;
; THUMBNAIL_BLOCK_END

; external perimeters extrusion width = 0.42mm
; perimeters extrusion width = 0.45mm
; infill extrusion width = 0.45mm
; solid infill extrusion width = 0.45mm
; top infill extrusion width = 0.42mm
; first layer extrusion width = 0.50mm

; EXECUTABLE_BLOCK_START
M73 P0 R49
M201 X500 Y500 Z100 E5000
M203 X500 Y500 Z10 E60
M204 P500 R1000 T500
M205 X12.00 Y12.00 Z0.40 E5.00 ; sets the jerk limits, mm/sec
;TYPE:Custom
G90 ; use absolute coordinates
M83 ; extruder relative mode
M104 S150 ; set temporary nozzle temp to prevent oozing during homing
M140 S60 ; set final bed temp
G4 S30 ; allow partial nozzle warmup
G28 ; home all axis and restore leveling
G1 Z50 F240
G1 X2.0 Y10 F3000
M104 S200 ; set final nozzle temp
M190 S60 ; wait for bed temp to stabilize
M109 S200 ; wait for nozzle temp to stabilize
G1 Z0.28 F240
G92 E0
G1 X2.0 Y140 E10 F1500 ; prime the nozzle
M73 P0 R48
G1 X2.3 Y140 F5000
G92 E0
M73 P1 R48
G1 X2.3 Y10 E10 F1200 ; prime the nozzle
G92 E0
G90
G21
M83 ; use relative distances for extrusion
; filament start gcode
M106 S0
;LAYER_CHANGE
;Z:0.2
;HEIGHT:0.2
;BEFORE_LAYER_CHANGE
;0.2
G92 E0

G1 E-1 F2400
;_SET_FAN_SPEED_CHANGING_LAYER
M204 S500
M205 X9 Y9
; printing object Top Base.STL id:4402719004888368158 copy 0
G1 Z.2 F9600
G1 X153.638 Y102.555
G1 Z.2
G1 E1 F2400
;TYPE:Inner wall
;WIDTH:0.499999
G1 F1800
G1 X154.162 Y106.668 E.14969
G1 X154.277 Y111.148 E.16181
G1 X154.128 Y113.822 E.09669
G1 X153.927 Y115.676 E.06736
G1 X153.108 Y120.173 E.16504
G1 X151.833 Y124.552 E.16465
G1 X150.115 Y128.776 E.16465
G1 X147.972 Y132.801 E.16465
G1 X145.426 Y136.585 E.16465
G1 X142.505 Y140.086 E.16465
G1 X139.239 Y143.269 E.16465
G1 X135.664 Y146.099 E.16465
G1 X131.816 Y148.547 E.16465
G1 X127.737 Y150.585 E.16465
G1 X123.47 Y152.194 E.16465
G1 X119.06 Y153.355 E.16465
G1 X114.554 Y154.057 E.16465
G1 X110 Y154.292 E.16465
G1 X105.446 Y154.057 E.16465
G1 X100.94 Y153.355 E.16465
G1 X96.53 Y152.194 E.16465
G1 X92.263 Y150.585 E.16465
G1 X88.184 Y148.547 E.16465
G1 X84.336 Y146.099 E.16465
G1 X80.761 Y143.269 E.16465
G1 X77.495 Y140.086 E.16465
G1 X74.574 Y136.585 E.16465
G1 X72.028 Y132.801 E.16465
G1 X69.885 Y128.776 E.16465
G1 X68.167 Y124.552 E.16465
G1 X66.892 Y120.173 E.16465
G1 X66.075 Y115.687 E.16465
G1 X65.723 Y111.14 E.16465
G1 X65.84 Y106.582 E.16465
G1 X66.426 Y102.059 E.16465
G1 X67.473 Y97.621 E.16465
G1 X68.971 Y93.314 E.16465
G1 X70.904 Y89.184 E.16465
G1 X73.252 Y85.274 E.16465
G1 X75.989 Y81.627 E.16465
G1 X79.087 Y78.28 E.16465
G1 X82.512 Y75.27 E.16465
G1 X86.229 Y72.628 E.16465
G1 X90.197 Y70.381 E.16465
G1 X94.376 Y68.555 E.16465
G1 X98.72 Y67.168 E.16465
G1 X102.854 Y66.305 E.15249
G1 X103.462 Y66.192 E.02231
G1 X107.728 Y65.766 E.15479
G1 X110 Y65.707 E.08207
G1 X112.271 Y65.766 E.08202
G1 X116.816 Y66.236 E.16498
G1 X121.28 Y67.168 E.16465
G1 X125.624 Y68.555 E.16465
G1 X129.803 Y70.381 E.16465
G1 X133.771 Y72.628 E.16465
G1 X137.488 Y75.27 E.16465
G1 X140.913 Y78.28 E.16465
G1 X144.011 Y81.627 E.16465
G1 X146.748 Y85.274 E.16465
G1 X149.096 Y89.184 E.16465
G1 X151.029 Y93.314 E.16465
G1 X152.527 Y97.621 E.16465
G1 X153.574 Y102.059 E.16465
G1 X153.633 Y102.516 E.01661
G1 X154.025 Y101.977 F9600
;TYPE:Outer wall
G1 F1800
G1 X154.619 Y106.656 E.17029
G1 X154.735 Y111.155 E.16249
G1 X154.583 Y113.859 E.09779
G1 X154.38 Y115.742 E.06839
G1 X153.553 Y120.278 E.16649
G1 X152.266 Y124.702 E.16635
G1 X150.53 Y128.97 E.16635
G1 X148.365 Y133.037 E.16635
G1 X145.793 Y136.859 E.16635
G1 X142.841 Y140.397 E.16635
G1 X139.542 Y143.613 E.16635
G1 X135.929 Y146.472 E.16635
G1 X132.041 Y148.945 E.16635
G1 X127.92 Y151.005 E.16635
G1 X123.609 Y152.63 E.16635
G1 X119.154 Y153.803 E.16635
G1 X114.601 Y154.512 E.16635
G1 X110 Y154.75 E.16635
G1 X105.399 Y154.512 E.16635
G1 X100.846 Y153.803 E.16635
G1 X96.391 Y152.63 E.16635
G1 X92.08 Y151.005 E.16635
G1 X87.959 Y148.945 E.16635
G1 X84.071 Y146.472 E.16635
G1 X80.458 Y143.613 E.16635
G1 X77.159 Y140.397 E.16635
G1 X74.207 Y136.859 E.16635
G1 X71.635 Y133.037 E.16635
G1 X69.47 Y128.97 E.16635
G1 X67.734 Y124.702 E.16635
G1 X66.447 Y120.278 E.16635
G1 X65.621 Y115.746 E.16635
G1 X65.265 Y111.152 E.16635
G1 X65.384 Y106.546 E.16635
G1 X65.975 Y101.977 E.16635
G1 X67.034 Y97.493 E.16635
G1 X68.547 Y93.142 E.16635
G1 X70.5 Y88.969 E.16635
G1 X72.872 Y85.019 E.16635
G1 X75.638 Y81.334 E.16635
G1 X78.767 Y77.952 E.16635
G1 X82.228 Y74.911 E.16635
G1 X85.983 Y72.241 E.16635
G1 X89.993 Y69.972 E.16635
G1 X94.214 Y68.127 E.16635
G1 X98.604 Y66.726 E.16635
G1 X102.761 Y65.857 E.15334
G1 X103.405 Y65.739 E.02364
G1 X107.699 Y65.309 E.15582
G1 X110 Y65.25 E.0831
G1 X112.3 Y65.309 E.08309
G1 X116.887 Y65.783 E.16647
G1 X121.396 Y66.726 E.16635
G1 X125.786 Y68.127 E.16635
G1 X130.007 Y69.972 E.16635
G1 X134.017 Y72.241 E.16635
G1 X137.772 Y74.911 E.16635
G1 X141.233 Y77.952 E.16635
G1 X144.362 Y81.334 E.16635
G1 X147.128 Y85.019 E.16635
G1 X149.5 Y88.969 E.16635
G1 X151.453 Y93.142 E.16635
G1 X152.966 Y97.493 E.16635
G1 X154.015 Y101.938 E.16491
G1 E-.7 F2400
;WIPE_START
G1 F1800
G1 X154.142 Y102.93 E-.3
;WIPE_END
G1 Z.4 F9600
G1 X151.93 Y111.516 Z.4
G1 Z.2
G1 E1 F2400
;TYPE:Inner wall
G1 F1800
G1 X151.61 Y111.847 E.01664
G1 X151.114 Y112.182 E.02162
G1 X150.562 Y112.39 E.02128
G3 X148.26 Y111.732 I-.562 J-2.39 E.09033
G3 X149.292 Y107.654 I1.738 J-1.73 E.18256
G1 X149.868 Y107.554 E.02108
G1 X150.472 Y107.59 E.02186
G3 X151.949 Y111.481 I-.484 J2.41 E.17922
G1 X151.778 Y110.913 F9600
;TYPE:Outer wall
G1 F1800
G1 X151.776 Y110.917 E.00016
G3 X151.354 Y111.468 I-1.772 J-.918 E.02519
G1 X150.858 Y111.804 E.02162
G3 X148.603 Y111.43 I-.854 J-1.838 E.08769
G3 X149.371 Y108.104 I1.396 J-1.429 E.14773
G1 X149.946 Y108.005 E.02108
G3 X151.905 Y110.604 I.058 J1.994 E.13744
G1 X151.793 Y110.876 E.01064
G1 E-.7 F2400
;WIPE_START
G1 F1800
G1 X151.776 Y110.917 E-.01332
G1 X151.596 Y111.204 E-.10171
G1 X151.354 Y111.468 E-.10744
G1 X151.14 Y111.613 E-.07753
;WIPE_END
G1 Z.4 F9600
G1 X121.035 Y116.707 Z.4
G1 Z.2
M73 P2 R48
G1 E1 F2400
;TYPE:Inner wall
G1 F1800
G1 X98.479 Y116.707 E.81443
G1 X98.188 Y116.642 E.01075
G1 X97.946 Y116.454 E.01107
G1 X97.811 Y116.179 E.01103
G1 X97.793 Y114.924 E.04535
G1 X97.793 Y103.979 E.39518
G1 X97.828 Y103.763 E.00787
G1 X97.988 Y103.499 E.01116
G1 X98.242 Y103.335 E.01092
G1 X98.479 Y103.293 E.00867
G1 X121.521 Y103.293 E.83199
G1 X121.812 Y103.358 E.01076
G1 X122.054 Y103.546 E.01106
G1 X122.19 Y103.827 E.01125
G1 X122.207 Y104.65 E.02975
G1 X122.207 Y116.021 E.41056
G1 X122.139 Y116.319 E.01102
G1 X121.942 Y116.563 E.01134
G1 X121.676 Y116.689 E.01063
G1 X121.097 Y116.707 E.02091
G1 X121.075 Y116.707 E.00078
G1 X121.521 Y116.25 F9600
;TYPE:Outer wall
G1 F1800
G1 X98.479 Y116.25 E.83199
G1 X98.314 Y116.18 E.00646
G1 X98.25 Y116.021 E.00617
G1 X98.262 Y103.907 E.43741
G1 X98.382 Y103.772 E.00653
G1 X99.167 Y103.75 E.02835
G1 X121.521 Y103.75 E.80714
G1 X121.685 Y103.819 E.0064
G1 X121.75 Y103.979 E.00623
G1 X121.75 Y116.021 E.43482
G1 X121.685 Y116.181 E.00623
G1 X121.558 Y116.234 E.00496
G1 E-.7 F2400
;WIPE_START
G1 F1800
G1 X120.558 Y116.235 E-.3
;WIPE_END
G1 Z.4 F9600
G1 X72.454 Y109.967 Z.4
G1 Z.2
G1 E1 F2400
;TYPE:Inner wall
G1 F1800
G1 X72.426 Y110.369 E.01456
G3 X68.534 Y111.963 I-2.424 J-.372 E.18244
G1 X68.101 Y111.549 E.02162
G1 X67.782 Y111.053 E.02128
G3 X67.565 Y110.326 I2.293 J-1.081 E.0275
G3 X67.744 Y109.031 I2.732 J-.282 E.04767
G3 X69.292 Y107.654 I2.298 J1.025 E.0771
G1 X69.868 Y107.554 E.02108
G1 X70.397 Y107.575 E.01914
G1 X70.873 Y107.705 E.01778
G3 X72.453 Y109.927 I-.871 J2.293 E.10439
G1 X71.957 Y109.594 F9600
;TYPE:Outer wall
G1 F1800
G1 X71.957 Y109.598 E.00016
G3 X70.15 Y111.994 I-1.957 J.404 E.12255
G1 X69.579 Y111.951 E.02068
G1 X69.159 Y111.814 E.01595
G1 X68.85 Y111.633 E.01293
G1 X68.418 Y111.218 E.02162
G3 X68.017 Y110.259 I1.776 J-1.305 E.03791
G3 X69.371 Y108.104 I1.985 J-.255 E.09956
G1 X69.946 Y108.005 E.02108
G3 X71.861 Y109.273 I.054 J1.997 E.08834
G1 X71.946 Y109.555 E.01064
G1 E-.7 F2400
;WIPE_START
G1 F1800
G1 X71.957 Y109.598 E-.01324
G1 X71.998 Y109.935 E-.1017
G1 X71.981 Y110.273 E-.10173
G1 X71.919 Y110.544 E-.08333
;WIPE_END
G1 Z.4 F9600
G1 X110.549 Y152.392 Z.4
G1 Z.2
G1 E1 F2400
;TYPE:Inner wall
G1 F1800
G1 X110 Y152.451 E.01994
G1 X109.438 Y152.39 E.02042
G1 X108.936 Y152.213 E.01921
G3 X107.558 Y150.254 I1.089 J-2.23 E.09024
G3 X109.224 Y147.67 I2.451 J-.249 E.11991
G1 X109.868 Y147.554 E.02361
G1 X110.382 Y147.573 E.01859
G1 X110.873 Y147.705 E.01832
G3 X112.145 Y148.816 I-.86 J2.269 E.06228
G1 X112.368 Y149.371 E.02162
G1 X112.455 Y149.954 E.02128
G3 X110.588 Y152.384 I-2.455 J.046 E.11948
G1 X110.809 Y151.828 F9600
;TYPE:Outer wall
G1 F1800
G1 X110.803 Y151.823 E.0003
G3 X110 Y151.994 I-.817 J-1.866 E.02984
G1 X109.477 Y151.93 E.01901
G3 X108.18 Y150.819 I.563 J-1.97 E.06361
G1 X108.019 Y150.273 E.02054
G3 X109.348 Y148.11 I1.99 J-.268 E.09924
G1 X109.946 Y148.005 E.02192
G3 X111.721 Y148.986 I.058 J1.99 E.07682
G1 X111.944 Y149.541 E.02162
G3 X111.981 Y150.273 I-1.886 J.462 E.02661
G1 X111.82 Y150.819 E.02054
G1 X111.596 Y151.204 E.0161
G3 X111.1 Y151.662 I-1.61 J-1.248 E.02447
G1 X110.844 Y151.808 E.01064
G1 E-.7 F2400
;WIPE_START
G1 F1800
G1 X110.803 Y151.823 E-.01316
G1 X110.485 Y151.94 E-.10156
G1 X110 Y151.994 E-.14641
G1 X109.871 Y151.978 E-.03887
;WIPE_END
G1 Z.4 F9600
G1 X111.283 Y72.088 Z.4
G1 Z.2
G1 E1 F2400
;TYPE:Inner wall
G1 F1800
G1 X110.958 Y72.26 E.0133
G3 X107.772 Y68.98 I-.949 J-2.265 E.21226
G1 X108.086 Y68.47 E.02162
G1 X108.503 Y68.054 E.02128
G1 X108.854 Y67.829 E.01504
G1 X109.293 Y67.654 E.01705
G1 X109.868 Y67.554 E.02108
G1 X110.352 Y67.57 E.01749
G1 X110.873 Y67.705 E.01942
G3 X112.145 Y68.816 I-.86 J2.269 E.06228
G1 X112.368 Y69.371 E.02162
G1 X112.456 Y69.932 E.02051
G3 X112.306 Y70.827 I-2.343 J.069 E.03297
G1 X112.037 Y71.362 E.02162
G1 X111.723 Y71.751 E.01806
G1 X111.35 Y72.053 E.01731
G1 X111.319 Y72.069 E.00127
G1 X111.395 Y71.427 F9600
;TYPE:Outer wall
G1 F1800
G1 X111.369 Y71.457 E.00142
G3 X111.111 Y71.663 I-1.345 J-1.422 E.01194
G3 X108.162 Y69.22 I-1.104 J-1.669 E.18444
G1 X108.475 Y68.71 E.02162
G3 X109.371 Y68.104 I1.606 J1.41 E.03945
G1 X109.946 Y68.005 E.02108
G3 X111.721 Y68.986 I.065 J1.978 E.07687
G1 X111.944 Y69.541 E.02162
G3 X111.898 Y70.622 I-2.088 J.452 E.03946
G1 X111.628 Y71.156 E.02162
G1 X111.421 Y71.397 E.01146
G1 E-.7 F2400
;WIPE_START
G1 F1800
G1 X111.369 Y71.457 E-.02379
G1 X111.111 Y71.663 E-.09906
G1 X110.806 Y71.83 E-.10444
G1 X110.577 Y71.908 E-.07271
;WIPE_END
G1 Z.4 F9600
G1 X135.561 Y74.124
G1 Z.4
G1 Z.2
G1 E1 F2400
;TYPE:Bottom surface
;WIDTH:0.500054
G1 F3000
G1 X144.913 Y83.476 E.47759
G1 X146.425 Y85.491 E.09099
G1 X146.641 Y85.851 E.01513
G1 X134.197 Y73.407 E.63546
G1 X133.563 Y72.956 E.02813
G1 X132.496 Y72.352 E.04426
G1 X147.613 Y87.469 E.77197
G1 X148.584 Y89.087 E.06816
G1 X131.006 Y71.509 E.89765
G1 X129.543 Y70.692 E.06054
G1 X149.223 Y90.372 E1.00502
G1 X149.792 Y91.587 E.04845
G1 X128.394 Y70.19 E1.09271
G1 X127.246 Y69.688 E.04525
G1 X150.36 Y92.802 E1.1804
G3 X150.826 Y93.915 I-5.149 J2.811 E.04364
G1 X126.098 Y69.186 E1.26285
G2 X125.042 Y68.777 I-2.505 J4.9 E.04094
G1 X151.171 Y94.906 E1.33435
G1 X151.516 Y95.898 E.0379
G1 X124.093 Y68.474 E1.40045
G1 X123.143 Y68.171 E.036
G1 X151.861 Y96.889 E1.46656
G1 X152.184 Y97.858 E.03689
G1 X122.193 Y67.868 E1.53154
G1 X121.244 Y67.565 E.036
G1 X152.383 Y98.704 E1.59023
G1 X152.583 Y99.551 E.0314
G1 X120.418 Y67.385 E1.64262
G1 X119.6 Y67.214 E.03015
G1 X152.783 Y100.397 E1.69455
G1 X152.983 Y101.243 E.0314
M73 P2 R47
G1 X118.783 Y67.044 E1.74648
G1 X117.966 Y66.873 E.03015
G1 X153.182 Y102.089 E1.79842
G1 X153.283 Y102.837 E.02724
G1 X117.149 Y66.702 E1.84531
G2 X116.381 Y66.581 I-.968 J3.651 E.0281
G1 X153.379 Y103.579 E1.8894
G1 X153.476 Y104.322 E.02704
G1 X115.66 Y66.507 E1.93114
G1 X114.939 Y66.432 E.02617
G1 X153.572 Y105.065 E1.97287
G1 X153.668 Y105.807 E.02704
M73 P3 R47
G1 X114.218 Y66.358 E2.0146
G1 X113.497 Y66.283 E.02617
G1 X153.764 Y106.55 E2.05633
G1 X153.788 Y107.22 E.02422
G1 X112.776 Y66.209 E2.09436
G2 X112.07 Y66.149 I-.736 J4.529 E.0256
G1 X153.805 Y107.884 E2.13127
G1 X153.822 Y108.547 E.02397
G1 X111.407 Y66.132 E2.16603
G1 X110.743 Y66.115 E.02397
G1 X153.839 Y109.211 E2.20079
G1 X153.856 Y109.874 E.02397
G1 X110.08 Y66.098 E2.23555
G2 X109.446 Y66.111 I-.191 J6.2 E.02289
G1 X110.545 Y67.21 E.05613
G1 X109.956 Y67.155 E.02136
G1 X109.859 Y67.17 E.00356
G1 X108.816 Y66.127 E.05329
G1 X108.185 Y66.143 E.02277
G1 X109.302 Y67.26 E.05704
G2 X108.819 Y67.423 I.263 J1.574 E.0185
G1 X107.568 Y66.172 E.06388
G1 X106.98 Y66.231 E.02133
G1 X108.405 Y67.656 E.07278
G2 X108.044 Y67.942 I.825 J1.416 E.01668
G1 X106.393 Y66.29 E.08435
G1 X105.805 Y66.349 E.02133
G1 X107.743 Y68.287 E.09898
G1 X107.497 Y68.687 E.01697
G1 X105.217 Y66.407 E.11641
G1 X104.629 Y66.466 E.02133
G1 X107.299 Y69.135 E.13632
G2 X107.182 Y69.665 I1.672 J.645 E.01967
G1 X104.042 Y66.525 E.16039
G2 X103.457 Y66.586 I.303 J5.708 E.02126
G1 X107.431 Y70.561 E.20297
G1 E-.7 F2400
;WIPE_START
G1 F3000
G1 X106.724 Y69.854 E-.3
;WIPE_END
G1 Z.4 F9600
G1 X112.47 Y69.135 Z.4
G1 Z.2
G1 E1 F2400
G1 F3000
G1 X150.556 Y107.221 E1.94496
G2 X149.856 Y107.168 I-.538 J2.443 E.02542
G1 X112.83 Y70.141 E1.89084
G3 X112.747 Y70.705 I-1.748 J.031 E.02066
G1 X149.306 Y107.264 E1.86696
G2 X148.817 Y107.421 I.1 J1.145 E.01871
G1 X112.563 Y71.168 E1.85138
G1 X112.348 Y71.599 E.0174
G1 X148.408 Y107.658 E1.8415
G2 X148.047 Y107.944 I.559 J1.077 E.01672
G1 X112.059 Y71.956 E1.83781
G1 X111.715 Y72.259 E.01654
G1 X147.742 Y108.285 E1.83978
G2 X147.49 Y108.681 I.933 J.871 E.01701
G1 X111.32 Y72.51 E1.84714
G3 X110.864 Y72.701 I-.748 J-1.149 E.01794
G1 X147.299 Y109.135 E1.86063
G2 X147.183 Y109.666 I1.636 J.635 E.01969
G1 X110.335 Y72.818 E1.88172
G1 X110.214 Y72.838 E.00443
G1 X109.697 Y72.827 E.01867
G1 X147.433 Y110.563 E1.92709
G1 E-.7 F2400
;WIPE_START
G1 F3000
G1 X146.726 Y109.856 E-.3
;WIPE_END
G1 Z.4 F9600
G1 X152.488 Y109.153 Z.4
G1 Z.2
G1 E1 F2400
G1 F3000
G1 X153.873 Y110.538 E.07075
G3 X153.886 Y111.197 I-4.013 J.406 E.02383
G1 X152.832 Y110.143 E.0538
G3 X152.745 Y110.703 I-1.559 J.043 E.02055
G1 X153.851 Y111.809 E.0565
G1 X153.817 Y112.421 E.02214
G1 X152.577 Y111.181 E.06335
G3 X152.349 Y111.6 I-1.584 J-.588 E.01728
G1 X153.783 Y113.033 E.0732
G1 X153.748 Y113.645 E.02214
G1 X152.059 Y111.956 E.08626
G3 X151.707 Y112.25 I-1.46 J-1.391 E.01661
G1 X153.692 Y114.236 E.10139
G1 X153.629 Y114.819 E.02119
G1 X151.321 Y112.511 E.11788
G3 X150.863 Y112.699 I-.827 J-1.359 E.01796
G1 X153.566 Y115.403 E.13806
G3 X153.48 Y115.963 I-3.89 J-.31 E.0205
G1 X150.332 Y112.815 E.16077
G1 X150.159 Y112.84 E.0063
G1 X149.697 Y112.826 E.01671
G1 X153.38 Y116.51 E.18812
G1 X153.281 Y117.057 E.02007
G1 X102.913 Y66.689 E2.57217
G1 X102.378 Y66.801 E.01973
G1 X153.181 Y117.604 E2.59438
G1 X153.082 Y118.151 E.02007
M73 P4 R47
G1 X101.844 Y66.913 E2.6166
G1 X101.309 Y67.024 E.01973
G1 X152.982 Y118.697 E2.63882
G1 X152.882 Y119.244 E.02007
G1 X100.774 Y67.136 E2.66104
G1 X100.239 Y67.248 E.01973
G1 X152.783 Y119.791 E2.68326
G3 X152.661 Y120.317 I-2.602 J-.323 E.0195
G1 X99.705 Y67.36 E2.70439
G1 X99.17 Y67.471 E.01973
G1 X152.516 Y120.817 E2.72425
G1 X152.37 Y121.318 E.01883
G1 X98.65 Y67.598 E2.74333
G1 X98.16 Y67.755 E.01858
G1 X152.224 Y121.819 E2.76091
G1 X152.078 Y122.319 E.01883
G1 X97.67 Y67.911 E2.77849
G1 X97.18 Y68.068 E.01858
G1 X151.933 Y122.82 E2.79608
G1 X151.787 Y123.321 E.01883
G1 X96.69 Y68.224 E2.81366
G1 X96.2 Y68.381 E.01858
G1 X151.641 Y123.822 E2.83124
G1 X151.495 Y124.322 E.01883
G1 X95.71 Y68.537 E2.84882
G1 X95.22 Y68.694 E.01858
G1 X151.317 Y124.79 E2.86473
G1 X151.13 Y125.25 E.01792
G1 X94.73 Y68.85 E2.88021
